assets/icons/24px/stroke/battery-vertical-low-24px.svg

<svg width="24" height="24" viewBox="0 0 24 24" fill="none" xmlns="http://www.w3.org/2000/svg">
<g clip-path="url(#clip0_878_25471)">
<g clip-path="url(#clip1_878_25471)">
<path d="M11 21C9.11438 21 8.17157 21 7.58579 20.4142C7 19.8284 7 18.8856 7 17L7 9C7 7.11438 7 6.17157 7.58579 5.58579C8.17157 5 9.11438 5 11 5L13 5C14.8856 5 15.8284 5 16.4142 5.58579C17 6.17157 17 7.11438 17 9L17 17C17 18.8856 17 19.8284 16.4142 20.4142C15.8284 21 14.8856 21 13 21L11 21Z" stroke="white" stroke-width="2" stroke-linecap="round" stroke-linejoin="round"/>
<path d="M12.5 5L11.5 5C10.9477 5 10.5 4.55228 10.5 4C10.5 3.44772 10.9477 3 11.5 3L12.5 3C13.0523 3 13.5 3.44772 13.5 4C13.5 4.55228 13.0523 5 12.5 5Z" fill="white" stroke="white" stroke-width="2" stroke-linecap="round" stroke-linejoin="round"/>
<path d="M10 17.5L14 17.5" stroke="white" stroke-width="2" stroke-linecap="round" stroke-linejoin="round"/>
</g>
</g>
<defs>
<clipPath id="clip0_878_25471">
<rect width="24" height="24" fill="white"/>
</clipPath>
<clipPath id="clip1_878_25471">
<rect width="24" height="24" fill="white" transform="translate(0 24) rotate(-90)"/>
</clipPath>
</defs>
</svg>

<svg width="24" height="24" fill="none" xmlns="http://www.w3.org/2000/svg"><g clip-path="url(#clip0_878_25471)"><g clip-path="url(#clip1_878_25471)" stroke="#fff" stroke-width="2" stroke-linecap="round" stroke-linejoin="round"><path d="M11 21c-1.886 0-2.828 0-3.414-.586C7 19.828 7 18.886 7 17V9c0-1.886 0-2.828.586-3.414C8.172 5 9.114 5 11 5h2c1.886 0 2.828 0 3.414.586C17 6.172 17 7.114 17 9v8c0 1.886 0 2.828-.586 3.414C15.828 21 14.886 21 13 21h-2z"/><path d="M12.5 5h-1a1 1 0 1 1 0-2h1a1 1 0 1 1 0 2z" fill="#fff"/><path d="M10 17.5h4"/></g></g><defs><clipPath id="clip0_878_25471"><path fill="#fff" d="M0 0H24V24H0z"/></clipPath><clipPath id="clip1_878_25471"><path fill="#fff" transform="rotate(-90 12 12)" d="M0 0H24V24H0z"/></clipPath></defs></svg>
